X:54
T: WIE HOCH IST DER HIMMEL
N: E0670A
O: Europa, Mitteleuropa, Deutschland, Hessen, Odenwald, Messel
R: Liebes - Lied
M: 3/4
L: 1/4
K: G
D | GBA | GG
G | eee | d2
A | AGE | ED
G | FEF | G2

@@@ Tune index: 4367
